assets/images/security/powered-by-stripe.svg

<svg width="109" height="27" viewBox="0 0 109 27" fill="none" xmlns="http://www.w3.org/2000/svg">
<path fill-rule="evenodd" clip-rule="evenodd" d="M55.5539 18.7126H54.3081L55.2723 16.3317L53.3535 11.4897H54.6699L55.8756 14.7851L57.0909 11.4897H58.4074L55.5539 18.7126ZM50.7711 16.6333C50.3396 16.6333 49.8967 16.473 49.4957 16.1608V16.5131H48.2098V9.28925H49.4957V11.8315C49.8967 11.5298 50.3396 11.3694 50.7711 11.3694C52.1172 11.3694 53.0413 12.4539 53.0413 14.0014C53.0413 15.5479 52.1172 16.6333 50.7711 16.6333ZM50.5 12.4739C50.1487 12.4739 49.7965 12.6248 49.4957 12.9264V15.0763C49.7965 15.377 50.1487 15.5279 50.5 15.5279C51.2236 15.5279 51.7258 14.9054 51.7258 14.0014C51.7258 13.0973 51.2236 12.4739 50.5 12.4739ZM43.0041 16.1608C42.6127 16.473 42.1707 16.6333 41.7287 16.6333C40.3922 16.6333 39.4586 15.5479 39.4586 14.0014C39.4586 12.4539 40.3922 11.3694 41.7287 11.3694C42.1707 11.3694 42.6127 11.5298 43.0041 11.8315V9.28925H44.3006V16.5131H43.0041V16.1608ZM43.0041 12.9264C42.713 12.6248 42.3617 12.4739 42.0104 12.4739C41.2762 12.4739 40.7741 13.0973 40.7741 14.0014C40.7741 14.9054 41.2762 15.5279 42.0104 15.5279C42.3617 15.5279 42.713 15.377 43.0041 15.0763V12.9264ZM35.3488 14.3527C35.429 15.1164 36.0324 15.6386 36.8753 15.6386C37.3383 15.6386 37.85 15.4677 38.3722 15.166V16.2419C37.8004 16.5026 37.2276 16.6333 36.6643 16.6333C35.1474 16.6333 34.083 15.5279 34.083 13.9613C34.083 12.4444 35.1274 11.3694 36.5641 11.3694C37.8806 11.3694 38.7741 12.4043 38.7741 13.8801C38.7741 14.0214 38.7741 14.1818 38.7541 14.3527H35.3488ZM36.5145 12.3632C35.8911 12.3632 35.409 12.8262 35.3488 13.5193H37.5388C37.4987 12.8358 37.0873 12.3632 36.5145 12.3632ZM31.9627 13.1575V16.5131H30.6768V11.4897H31.9627V11.9918C32.3245 11.5899 32.7665 11.3694 33.198 11.3694C33.3393 11.3694 33.4796 11.379 33.62 11.4191V12.5646C33.4796 12.5245 33.3193 12.5045 33.1684 12.5045C32.7465 12.5045 32.294 12.7355 31.9627 13.1575ZM26.2262 14.3527C26.3064 15.1164 26.9088 15.6386 27.7527 15.6386C28.2148 15.6386 28.7274 15.4677 29.2496 15.166V16.2419C28.6768 16.5026 28.104 16.6333 27.5417 16.6333C26.0248 16.6333 24.9604 15.5279 24.9604 13.9613C24.9604 12.4444 26.0048 11.3694 27.4415 11.3694C28.757 11.3694 29.6515 12.4043 29.6515 13.8801C29.6515 14.0214 29.6515 14.1818 29.6315 14.3527H26.2262ZM27.3909 12.3632C26.7685 12.3632 26.2864 12.8262 26.2262 13.5193H28.4162C28.3761 12.8358 27.9637 12.3632 27.3909 12.3632ZM21.7346 16.5131L20.7093 13.0973L19.6946 16.5131H18.5394L16.8115 11.4897H18.0974L19.1122 14.9054L20.127 11.4897H21.2917L22.3065 14.9054L23.3213 11.4897H24.6072L22.8898 16.5131H21.7346ZM13.8769 16.6333C12.36 16.6333 11.2851 15.5384 11.2851 14.0014C11.2851 12.4539 12.36 11.3694 13.8769 11.3694C15.3939 11.3694 16.4593 12.4539 16.4593 14.0014C16.4593 15.5384 15.3939 16.6333 13.8769 16.6333ZM13.8769 12.4444C13.1237 12.4444 12.6015 13.0773 12.6015 14.0014C12.6015 14.9255 13.1237 15.5584 13.8769 15.5584C14.6206 15.5584 15.1428 14.9255 15.1428 14.0014C15.1428 13.0773 14.6206 12.4444 13.8769 12.4444ZM8.23021 14.031H7.07509V16.5131H5.78918V9.60046H8.23021C9.63736 9.60046 10.6417 10.515 10.6417 11.821C10.6417 13.1269 9.63736 14.031 8.23021 14.031ZM8.04979 10.6458H7.07509V12.9866H8.04979C8.79346 12.9866 9.31565 12.514 9.31565 11.821C9.31565 11.1183 8.79346 10.6458 8.04979 10.6458Z" fill="#222222"/>
<path fill-rule="evenodd" clip-rule="evenodd" d="M103.683 14.5255H98.3765C98.4977 15.7961 99.4285 16.1703 100.485 16.1703C101.561 16.1703 102.409 15.9431 103.148 15.5708V17.7541C102.412 18.1627 101.439 18.4567 100.144 18.4567C97.503 18.4567 95.6529 16.8033 95.6529 13.5346C95.6529 10.7737 97.2223 8.58185 99.8008 8.58185C102.375 8.58185 103.72 10.7728 103.72 13.5489C103.72 13.8114 103.696 14.3794 103.683 14.5255ZM99.7836 10.7919C99.1058 10.7919 98.3526 11.3035 98.3526 12.5245H101.155C101.155 11.3045 100.449 10.7919 99.7836 10.7919ZM91.2653 18.4567C90.3164 18.4567 89.7369 18.0567 89.3474 17.7713L89.3417 20.8386L86.6315 21.4152L86.6305 8.76228H89.0171L89.1584 9.43149C89.5326 9.08209 90.219 8.58185 91.2815 8.58185C93.1851 8.58185 94.9779 10.2964 94.9779 13.4525C94.9779 16.8968 93.2042 18.4567 91.2653 18.4567ZM90.6333 10.9828C90.0119 10.9828 89.6214 11.21 89.3388 11.5203L89.3551 15.5479C89.6186 15.8333 89.9975 16.0625 90.6333 16.0625C91.6357 16.0625 92.3078 14.9713 92.3078 13.5116C92.3078 12.094 91.6252 10.9828 90.6333 10.9828ZM82.7126 8.76228H85.4334V18.2629H82.7126V8.76228ZM82.7126 5.72842L85.4334 5.1499V7.358L82.7126 7.93651V5.72842ZM79.8115 11.8219V18.2629H77.1022V8.76228H79.4458L79.6158 9.56323C80.2506 8.39665 81.5174 8.63341 81.8783 8.76324V11.2549C81.5337 11.1432 80.452 10.9809 79.8115 11.8219ZM74.0015 14.9303C74.0015 16.5274 75.7122 16.03 76.0588 15.8916V18.0978C75.6979 18.2963 75.043 18.4567 74.1571 18.4567C72.5485 18.4567 71.3409 17.272 71.3409 15.6672L71.3533 6.97137L73.9996 6.40813L74.0015 8.76228H76.0597V11.0735H74.0015V14.9303ZM70.623 15.3923C70.623 17.3436 69.0698 18.4567 66.8159 18.4567C65.8813 18.4567 64.8598 18.2753 63.8517 17.8419V15.2539C64.7615 15.7484 65.9204 16.1197 66.8187 16.1197C67.423 16.1197 67.8584 15.9574 67.8584 15.4563C67.8584 14.1627 63.7381 14.6496 63.7381 11.6491C63.7381 9.73029 65.2035 8.58185 67.402 8.58185C68.3004 8.58185 69.1977 8.71932 70.096 9.07732V11.631C69.2712 11.1852 68.224 10.9331 67.4001 10.9331C66.8321 10.9331 66.4789 11.0973 66.4789 11.5203C66.4789 12.7403 70.623 12.1599 70.623 15.3923Z" fill="#222222"/>
<rect x="1.1379" y="0.498744" width="107.233" height="25.5678" rx="2.36519" stroke="#222222" stroke-width="0.997487"/>
</svg>

<svg width="109" height="27" fill="none" xmlns="http://www.w3.org/2000/svg"><path fill-rule="evenodd" clip-rule="evenodd" d="M55.554 18.713h-1.246l.964-2.381-1.919-4.842h1.317l1.206 3.295 1.215-3.295h1.316l-2.853 7.223zm-4.783-2.08c-.431 0-.874-.16-1.275-.472v.352H48.21V9.29h1.286v2.543c.4-.302.844-.463 1.275-.463 1.346 0 2.27 1.085 2.27 2.632 0 1.547-.924 2.632-2.27 2.632zm-.271-4.16c-.351 0-.703.152-1.004.453v2.15c.3.301.653.452 1.004.452.724 0 1.226-.623 1.226-1.527 0-.904-.502-1.527-1.226-1.527zm-7.496 3.688c-.391.312-.833.472-1.275.472-1.337 0-2.27-1.085-2.27-2.632 0-1.547.933-2.632 2.27-2.632.442 0 .884.16 1.275.463V9.288h1.297v7.224h-1.297v-.352zm0-3.235c-.291-.301-.642-.452-.994-.452-.734 0-1.236.623-1.236 1.527 0 .904.502 1.527 1.236 1.527.352 0 .703-.151.994-.452v-2.15zm-7.655 1.427c.08.763.683 1.286 1.526 1.286.463 0 .975-.171 1.497-.473v1.076a4.102 4.102 0 0 1-1.708.391c-1.517 0-2.581-1.105-2.581-2.672 0-1.517 1.044-2.592 2.481-2.592 1.317 0 2.21 1.035 2.21 2.511 0 .141 0 .302-.02.473H35.35zm1.166-1.99c-.624 0-1.106.463-1.166 1.156h2.19c-.04-.683-.452-1.156-1.025-1.156zm-4.552.795v3.355h-1.286V11.49h1.286v.502c.361-.402.803-.623 1.235-.623.141 0 .282.01.422.05v1.146c-.14-.04-.3-.06-.452-.06-.422 0-.874.23-1.205.652zm-5.737 1.195c.08.763.683 1.286 1.527 1.286.462 0 .974-.171 1.497-.473v1.076a4.109 4.109 0 0 1-1.708.391c-1.517 0-2.582-1.105-2.582-2.672 0-1.517 1.045-2.592 2.482-2.592 1.315 0 2.21 1.035 2.21 2.511 0 .141 0 .302-.02.473h-3.406zm1.165-1.99c-.622 0-1.105.463-1.165 1.156h2.19c-.04-.683-.452-1.156-1.025-1.156zm-5.656 4.15l-1.026-3.416-1.014 3.416h-1.156l-1.728-5.023h1.286l1.015 3.415 1.015-3.415h1.165l1.014 3.415 1.015-3.415h1.286l-1.717 5.023h-1.155zm-7.858.12c-1.517 0-2.592-1.095-2.592-2.632 0-1.547 1.075-2.632 2.592-2.632 1.517 0 2.582 1.085 2.582 2.632 0 1.537-1.065 2.632-2.582 2.632zm0-4.189c-.753 0-1.276.633-1.276 1.557 0 .925.523 1.557 1.276 1.557.744 0 1.266-.633 1.266-1.557 0-.924-.522-1.557-1.266-1.557zM8.23 14.031H7.075v2.482H5.79V9.6H8.23c1.407 0 2.412.915 2.412 2.221s-1.005 2.21-2.412 2.21zm-.18-3.385h-.975v2.34h.975c.743 0 1.266-.472 1.266-1.165 0-.703-.523-1.175-1.266-1.175zm95.633 3.88h-5.307c.122 1.27 1.052 1.644 2.109 1.644 1.076 0 1.924-.227 2.663-.6v2.184c-.736.409-1.709.703-3.004.703-2.641 0-4.491-1.654-4.491-4.922 0-2.761 1.57-4.953 4.148-4.953 2.574 0 3.919 2.19 3.919 4.967 0 .262-.024.83-.037.976zm-3.9-3.734c-.677 0-1.43.511-1.43 1.732h2.802c0-1.22-.706-1.732-1.371-1.732zm-8.518 7.665c-.949 0-1.528-.4-1.918-.686l-.005 3.068-2.71.576-.002-12.653h2.387l.141.67c.375-.35 1.061-.85 2.123-.85 1.904 0 3.697 1.714 3.697 4.87 0 3.445-1.774 5.005-3.713 5.005zm-.632-7.474c-.621 0-1.012.227-1.294.537l.016 4.028c.264.285.642.514 1.278.514 1.003 0 1.675-1.09 1.675-2.55 0-1.418-.683-2.53-1.675-2.53zm-7.92-2.22h2.72v9.5h-2.72v-9.5zm0-3.035l2.72-.578v2.208l-2.72.579V5.728zm-2.901 6.094v6.44h-2.71v-9.5h2.344l.17.801c.635-1.166 1.901-.93 2.262-.8v2.492c-.344-.112-1.426-.274-2.067.567zm-5.81 3.108c0 1.597 1.71 1.1 2.057.962v2.206c-.361.198-1.016.359-1.902.359-1.608 0-2.816-1.185-2.816-2.79l.012-8.696L74 6.408 74 8.762h2.059v2.311H74v3.857zm-3.379.462c0 1.952-1.553 3.065-3.807 3.065a7.526 7.526 0 0 1-2.964-.615v-2.588c.91.494 2.068.866 2.967.866.604 0 1.04-.163 1.04-.664 0-1.293-4.12-.806-4.12-3.807 0-1.919 1.465-3.067 3.663-3.067.898 0 1.796.137 2.694.495v2.554c-.825-.446-1.872-.698-2.696-.698-.568 0-.921.164-.921.587 0 1.22 4.144.64 4.144 3.872z" fill="#222"/><rect x="1.138" y=".499" width="107.233" height="25.568" rx="2.365" stroke="#222" stroke-width=".997"/></svg>
